X:1
T:Francis Garden Esquire Junior's Favorite
T:Francis Garden Esquire Junior's Favorite
T:Robert Petrie
C:Robert Petrie
L:1/8
M:4/4
K:Bb
V:1 treble 
V:1
|: d/c/ | BF (G/F/)(E/D/) G<FTd<c | BF B/c/d/B cGGed/c/ | B>FG>E D<BF<B | Gc A/F/e/c/ dBB :| d/e/ | %6
 f>dB>F GEEe/f/ | g=e cd/B/ A<FF>A | B>fd>f gcc>d | eGc>B A/B/c/A/ F2 | B>d F2 e/d/c/B/ g2 | %11
 f>d b2 gecB AF | GEeg f>b d>B | (BA)(GF) (fgfe) dBB |] %14

